tn/screen-alt.svg

<svg viewBox="0 0 15 15" fill="none" xmlns="http://www.w3.org/2000/svg" height="1em" width="1em">
  <path d="M1.5 0C0.671573 0 0 0.671573 0 1.5V9.5C0 10.3284 0.671574 11 1.5 11H7V14H2V15H13V14H8V11H13.5C14.3284 11 15 10.3284 15 9.5V1.5C15 0.671574 14.3284 0 13.5 0H1.5Z" fill="black"/>
</svg>

<svg viewBox="0 0 15 15" fill="none" xmlns="http://www.w3.org/2000/svg" height="1em" width="1em">
  <path d="M1.5 0A1.5 1.5 0 0 0 0 1.5v8A1.5 1.5 0 0 0 1.5 11H7v3H2v1h11v-1H8v-3h5.5A1.5 1.5 0 0 0 15 9.5v-8A1.5 1.5 0 0 0 13.5 0h-12Z" fill="#000"/>
</svg>
